X: 110
T: Cranberry Rock
B: canberra pickers and fiddlers
B: old time tunes update
B: tunes
M:4/4
L:1/8
Q: 1/4=100
K:C
V:1 
g3 a gedA|c2 cd cAGc|e a2 a abag|ea2b agef|
g2 ga gedA|c2 cd cAGD|(E/F/G) AB AGED|EGEC D C2D[M:2/4]|1 C2G,2:|2 C2 G,A,||
[M:4/4]C2 EG EDCE|DCA,C [EA][DA][E2A2]|A2 c2 AcAG|EGEC D C2D|\
[M:2/4]C2 [B,2D2]|
[M:4/4][C3E3]G EDCE|DCA,C [EA][DA][E2A2]|A2c2 AcAG|EGEC D C2D|\
[M:2/4][C4E4]||
% abcbook-tune_id 67a7d9eca2fd81557ecb5068
% abcbook-tune_composer_id 
% abcbook-link-0 https://www.youtube.com/watch?v=wZYeWSiWecI
% abcbook-link-title-0 Cranberry Rock
% abcbook-boost 0
% abcbook-difficulty 0
% abcbook-tags old time tunes
% abcbook-tablature 
% abcbook-transpose 
% abcbook-tuning GDAE
% abcbook-lastupdated 1739143258047
% abcbook-src-url 
% abcbook-soundfonts 
% abcbook-repeats 1


